docs/img/mi__white.svg

<svg width="60" height="39" viewBox="0 0 60 39" fill="none" xmlns="http://www.w3.org/2000/svg">
<path fill-rule="evenodd" clip-rule="evenodd" d="M59.3689 0C59.7139 0 60 0.281934 60 0.629353V38.3743C60 38.7162 59.7139 39 59.3689 39H51.2391C50.8904 39 50.6079 38.7162 50.6079 38.3743V0.629353C50.6079 0.281934 50.8904 0 51.2391 0H59.3689ZM24.0926 0C30.2253 0 36.6369 0.285574 39.798 3.50511C42.909 6.6736 43.2446 12.9812 43.2573 19.1066L43.2576 38.3743C43.2576 38.7162 42.9752 39 42.6265 39H34.5003C34.1516 39 33.8673 38.7162 33.8673 38.3743V18.7751C33.8584 15.3537 33.6653 11.8377 31.931 10.0679C30.4381 8.5454 27.6524 8.19617 24.7559 8.12341H10.0232C9.67639 8.12341 9.39388 8.40716 9.39388 8.74912V38.3743C9.39388 38.7162 9.10782 39 8.76095 39H0.627567C0.280704 39 0 38.7162 0 38.3743V0.629353C0 0.281934 0.280704 0 0.627567 0H24.0926ZM25.9128 15.0318C26.2578 15.0318 26.5385 15.3137 26.5385 15.6575V38.3743C26.5385 38.7162 26.2578 39 25.9128 39H17.3735C17.0231 39 16.7406 38.7162 16.7406 38.3743V15.6575C16.7406 15.3137 17.0231 15.0318 17.3735 15.0318H25.9128Z" fill="#F1F1F1"/>
</svg>

<svg width="60" height="39" fill="none" xmlns="http://www.w3.org/2000/svg"><path fill-rule="evenodd" clip-rule="evenodd" d="M59.369 0c.345 0 .631.282.631.63v37.744a.633.633 0 0 1-.631.626h-8.13a.63.63 0 0 1-.631-.626V.63a.63.63 0 0 1 .631-.63h8.13ZM24.093 0c6.132 0 12.544.286 15.705 3.505 3.111 3.169 3.447 9.476 3.46 15.602v19.267a.63.63 0 0 1-.632.626H34.5a.632.632 0 0 1-.633-.626V18.775c-.009-3.421-.202-6.937-1.936-8.707-1.493-1.523-4.279-1.872-7.175-1.945H10.023a.63.63 0 0 0-.63.626v29.625a.633.633 0 0 1-.632.626H.628A.629.629 0 0 1 0 38.374V.63C0 .282.28 0 .628 0h23.465Zm1.82 15.032c.345 0 .625.282.625.626v22.716c0 .342-.28.626-.625.626h-8.54a.631.631 0 0 1-.632-.626V15.657a.63.63 0 0 1 .633-.625h8.539Z" fill="#F1F1F1"/></svg>
